dist/assets/images/icons/hidden.svg

<svg width="24" height="24" viewBox="0 0 24 24" fill="none" xmlns="http://www.w3.org/2000/svg">
<path d="M16.7934 13.6001C16.9849 13.0885 17.082 12.5464 17.0801 12.0001C17.0801 10.7872 16.5983 9.62392 15.7406 8.76626C14.8829 7.90859 13.7197 7.42676 12.5068 7.42676C11.9672 7.42739 11.4321 7.52447 10.9268 7.71342L12.0001 8.82009C12.1633 8.79399 12.3282 8.78061 12.4934 8.78009C13.351 8.7783 14.1745 9.11592 14.7841 9.71922C15.3936 10.3225 15.7397 11.1425 15.7468 12.0001C15.7462 12.1653 15.7328 12.3303 15.7068 12.4934L16.7934 13.6001Z" fill="#101112"/>
<path d="M22.8603 11.6867C20.6136 7.53335 16.6736 5.02002 12.3136 5.02002C11.1265 5.02281 9.94742 5.21408 8.82031 5.58669L9.89365 6.66669C10.6842 6.46237 11.4971 6.35712 12.3136 6.35335C16.067 6.35335 19.4803 8.44669 21.5136 11.9734C20.7678 13.2818 19.7789 14.4357 18.6003 15.3734L19.547 16.32C20.911 15.2196 22.0439 13.8601 22.8803 12.32L23.0536 12L22.8603 11.6867Z" fill="#101112"/>
<path d="M3.24691 3.85344L6.22025 6.82677C4.34086 8.03685 2.80485 9.71062 1.76025 11.6868L1.58691 12.0001L1.76025 12.3201C4.00691 16.4734 7.94691 18.9868 12.3069 18.9868C14.0087 18.9864 15.6884 18.6013 17.2202 17.8601L20.5536 21.1934L21.7202 20.1934L4.38691 2.86011L3.24691 3.85344ZM9.74691 10.3534L14.1802 14.7868C13.6793 15.0968 13.1027 15.2629 12.5136 15.2668C12.0855 15.2668 11.6617 15.1821 11.2665 15.0177C10.8713 14.8533 10.5125 14.6124 10.2107 14.3088C9.909 14.0052 9.67027 13.6449 9.50829 13.2487C9.34631 12.8525 9.26428 12.4281 9.26691 12.0001C9.27443 11.4178 9.44036 10.8486 9.74691 10.3534ZM8.78025 9.38677C8.15654 10.2664 7.8642 11.3383 7.95499 12.4128C8.04578 13.4872 8.51385 14.4949 9.27632 15.2574C10.0388 16.0198 11.0465 16.4879 12.1209 16.5787C13.1954 16.6695 14.2673 16.3772 15.1469 15.7534L16.2136 16.8201C14.9788 17.3479 13.6498 17.6201 12.3069 17.6201C8.55358 17.6201 5.14025 15.5268 3.10691 12.0001C4.08272 10.2723 5.48806 8.82557 7.18691 7.80011L8.78025 9.38677Z" fill="#101112"/>
</svg>

<svg width="24" height="24" fill="none" xmlns="http://www.w3.org/2000/svg"><path d="M16.793 13.6a4.573 4.573 0 00-4.287-6.173c-.539 0-1.074.097-1.58.286L12 8.82A3.247 3.247 0 0115.747 12c0 .165-.014.33-.04.493l1.086 1.107z" fill="#101112"/><path d="M22.86 11.687C20.614 7.533 16.674 5.02 12.314 5.02a11.213 11.213 0 00-3.494.567l1.074 1.08a9.853 9.853 0 012.42-.314c3.753 0 7.166 2.094 9.2 5.62a11.833 11.833 0 01-2.914 3.4l.947.947a13.287 13.287 0 003.333-4l.174-.32-.194-.313zM3.247 3.853L6.22 6.827a13.013 13.013 0 00-4.46 4.86L1.587 12l.173.32c2.247 4.153 6.187 6.667 10.547 6.667 1.702 0 3.381-.386 4.913-1.127l3.334 3.333 1.166-1L4.387 2.86l-1.14.993zm6.5 6.5l4.433 4.434c-.5.31-1.077.476-1.666.48A3.247 3.247 0 019.267 12a3.207 3.207 0 01.48-1.647zm-.967-.966a4.567 4.567 0 006.367 6.366l1.067 1.067a9.94 9.94 0 01-3.907.8c-3.753 0-7.167-2.093-9.2-5.62a11.527 11.527 0 014.08-4.2L8.78 9.387z" fill="#101112"/></svg>
